static/assets/icons/language-translator-icon.svg

<svg width="123" height="85" viewBox="0 0 123 85" fill="none" xmlns="http://www.w3.org/2000/svg">
<g clip-path="url(#clip0_8_7)">
<path fill-rule="evenodd" clip-rule="evenodd" d="M118.29 10.8999C120.6 13.2099 122.19 16.2399 122.7 19.6199C122.89 20.9199 122.88 22.0399 122.88 23.3199V44.4099C122.88 45.5499 122.91 46.6799 122.81 47.8199C122.37 52.5399 119.73 56.8899 115.75 59.4599C110.71 62.7299 104.95 61.9799 98.92 61.9799C100.91 67.4599 104.92 72.5199 109.25 76.3499L107.63 79.3899L107.58 79.3699C97.09 76.6699 86.03 70.4699 79.29 61.9699C75.12 61.9299 71.71 61.9799 67.55 61.4199C62.97 64.1999 57.52 66.0099 52.14 66.0099C48.65 70.3599 44.59 74.0799 39.95 77.1299C34.94 80.4199 29.28 82.9199 22.97 84.5799C22.66 84.6599 22.35 84.7399 22.03 84.7799C20.94 84.8999 19.8 84.5099 19.02 83.6299C17.74 82.1899 17.88 79.9799 19.32 78.6999C23.4 75.0899 25.68 71.1299 27.31 66.0299C19.35 66.0299 12.69 66.8699 6.21 60.3999C-1.88 52.2999 0.129997 33.4699 0.539997 22.1699C0.669997 18.5399 0.419997 16.1499 1.87 12.3599C3.75 7.41989 7.65 3.42989 12.58 1.44989C17.19 -0.41011 22.2 0.0498901 27.06 0.0498901H56.61C58.78 0.0498901 60.55 0.0398901 62.77 0.55989C66.51 1.41989 69.9 3.40989 72.55 6.29989L106.67 6.30989C111.18 6.30989 115.05 7.64989 118.29 10.8999ZM99.93 42.7899H90.96L89.72 47.2499H81.68C84.37 39.6499 87.07 32.0399 89.76 24.4299C90.73 21.6799 91.83 17.1299 95.36 17.1299C99.02 17.1299 100.23 21.2999 101.25 24.1799L109.43 47.2399H101.19L99.93 42.7899ZM98.28 36.9399L95.46 27.2199L92.66 36.9399H98.28ZM83.15 71.6599L77.32 66.8399L70.04 75.8299L59.47 66.6599L54.48 72.2999L65.93 81.4099L75.21 80.6099L83.15 71.6599ZM76.65 9.85989C80.07 23.1699 83.72 46.5499 74.54 58.3899C76.71 58.4199 78.85 58.4199 81.02 58.4199C85.94 64.9599 92.26 69.5299 99.7 72.8699C100.4 73.1799 101.11 73.4899 101.82 73.7699C99.29 70.7099 97.07 67.1799 95.66 63.4399C95.01 61.7099 94.66 60.1899 94.22 58.4199C96.26 58.4199 98.26 58.4399 100.31 58.5099C104.84 58.6699 109.61 58.7999 113.38 56.6899C115.01 55.7799 116.32 54.4899 117.35 52.9399C118.26 51.5499 118.9 49.9599 119.18 48.2699C119.39 46.9899 119.32 45.5799 119.32 44.2799V22.6299C119.32 22.0599 119.33 21.5399 119.29 20.9699C119.06 18.0399 117.76 15.3799 115.78 13.3999C113.86 11.4699 111.29 10.1899 108.45 9.90989C107.72 9.83989 107 9.84989 106.27 9.84989L76.65 9.85989ZM21.21 13.4899H34.65V9.69989H40.65V13.4899H54.14V19.7099H51.37C51.15 21.4599 50.74 23.1999 50.18 24.9199H50.19C49.62 26.6699 48.84 28.4299 47.91 30.1699C46.33 33.1199 44.29 35.9499 41.93 38.6699C45.71 43.1899 50.39 47.1199 55.98 50.6999L52.89 55.5099C47.03 51.7499 42.05 47.6099 37.96 42.8399C34.3 46.3799 30.15 49.6799 25.79 52.6899L22.54 47.9899C26.85 45.0099 30.94 41.7499 34.46 38.2799C31.21 33.5299 28.73 28.1999 27.01 22.0699L32.52 20.5299C33.93 25.5599 35.91 29.9799 38.45 33.9399C40.18 31.8399 41.68 29.6899 42.87 27.4799C43.62 26.0799 44.26 24.6199 44.75 23.1299H44.76C45.13 22.0199 45.41 20.8699 45.6 19.7099H21.21V13.4899Z" fill="white"/>
</g>
<defs>
<clipPath id="clip0_8_7">
<rect width="122.88" height="84.81" fill="white"/>
</clipPath>
</defs>
</svg>

<?xml version="1.0" encoding="utf-8"?><svg version="1.1" id="Layer_1" xmlns="http://www.w3.org/2000/svg" xmlns:xlink="http://www.w3.org/1999/xlink" x="0px" y="0px" viewBox="0 0 122.88 84.81" style="enable-background:new 0 0 122.88 84.81" xml:space="preserve"><style type="text/css">.st0{fill-rule:evenodd;clip-rule:evenodd;}</style><g><path class="st0" d="M118.29,10.9c2.31,2.31,3.9,5.34,4.41,8.72c0.19,1.3,0.18,2.42,0.18,3.7v21.09c0,1.14,0.03,2.27-0.07,3.41 c-0.44,4.72-3.08,9.07-7.06,11.64c-5.04,3.27-10.8,2.52-16.83,2.52c1.99,5.48,6,10.54,10.33,14.37l-1.62,3.04l-0.05-0.02 c-10.49-2.7-21.55-8.9-28.29-17.4c-4.17-0.04-7.58,0.01-11.74-0.55c-4.58,2.78-10.03,4.59-15.41,4.59 c-3.49,4.35-7.55,8.07-12.19,11.12c-5.01,3.29-10.67,5.79-16.98,7.45c-0.31,0.08-0.62,0.16-0.94,0.2 c-1.09,0.12-2.23-0.27-3.01-1.15c-1.28-1.44-1.14-3.65,0.3-4.93c4.08-3.61,6.36-7.57,7.99-12.67c-7.96,0-14.62,0.84-21.1-5.63 c-8.09-8.1-6.08-26.93-5.67-38.23c0.13-3.63-0.12-6.02,1.33-9.81C3.75,7.42,7.65,3.43,12.58,1.45c4.61-1.86,9.62-1.4,14.48-1.4 h29.55c2.17,0,3.94-0.01,6.16,0.51c3.74,0.86,7.13,2.85,9.78,5.74l34.12,0.01C111.18,6.31,115.05,7.65,118.29,10.9L118.29,10.9z M99.93,42.79h-8.97l-1.24,4.46h-8.04c2.69-7.6,5.39-15.21,8.08-22.82c0.97-2.75,2.07-7.3,5.6-7.3c3.66,0,4.87,4.17,5.89,7.05 l8.18,23.06h-8.24L99.93,42.79L99.93,42.79z M98.28,36.94l-2.82-9.72l-2.8,9.72H98.28L98.28,36.94z M83.15,71.66l-5.83-4.82 l-7.28,8.99l-10.57-9.17l-4.99,5.64l11.45,9.11l9.28-0.8L83.15,71.66L83.15,71.66z M76.65,9.86c3.42,13.31,7.07,36.69-2.11,48.53 c2.17,0.03,4.31,0.03,6.48,0.03c4.92,6.54,11.24,11.11,18.68,14.45c0.7,0.31,1.41,0.62,2.12,0.9c-2.53-3.06-4.75-6.59-6.16-10.33 c-0.65-1.73-1-3.25-1.44-5.02c2.04,0,4.04,0.02,6.09,0.09c4.53,0.16,9.3,0.29,13.07-1.82c1.63-0.91,2.94-2.2,3.97-3.75 c0.91-1.39,1.55-2.98,1.83-4.67c0.21-1.28,0.14-2.69,0.14-3.99V22.63c0-0.57,0.01-1.09-0.03-1.66c-0.23-2.93-1.53-5.59-3.51-7.57 c-1.92-1.93-4.49-3.21-7.33-3.49c-0.73-0.07-1.45-0.06-2.18-0.06L76.65,9.86L76.65,9.86z M21.21,13.49h13.44V9.7h6v3.79h13.49v6.22 h-2.77c-0.22,1.75-0.63,3.49-1.19,5.21l0.01,0c-0.57,1.75-1.35,3.51-2.28,5.25c-1.58,2.95-3.62,5.78-5.98,8.5 c3.78,4.52,8.46,8.45,14.05,12.03l-3.09,4.81c-5.86-3.76-10.84-7.9-14.93-12.67c-3.66,3.54-7.81,6.84-12.17,9.85l-3.25-4.7 c4.31-2.98,8.4-6.24,11.92-9.71c-3.25-4.75-5.73-10.08-7.45-16.21l5.51-1.54c1.41,5.03,3.39,9.45,5.93,13.41 c1.73-2.1,3.23-4.25,4.42-6.46c0.75-1.4,1.39-2.86,1.88-4.35l0.01,0v0c0.37-1.11,0.65-2.26,0.84-3.42H21.21V13.49L21.21,13.49z"/></g></svg>
